dist/img/icons/icon-play-button.svg

<?xml version="1.0" encoding="UTF-8" standalone="no"?>
<svg width="30px" height="30px" viewBox="0 0 30 30" version="1.1" xmlns="http://www.w3.org/2000/svg" xmlns:xlink="http://www.w3.org/1999/xlink">
    <!-- Generator: Sketch 3.8.3 (29802) - http://www.bohemiancoding.com/sketch -->
    <title>Group</title>
    <desc>Created with Sketch.</desc>
    <defs></defs>
    <g id="Page-1" stroke="none" stroke-width="1" fill="none" fill-rule="evenodd">
        <g id="Group" fill="#000000">
            <path d="M15,30 C6.72857143,30 0,23.2714286 0,15 C0,6.72857143 6.72857143,0 15,0 C23.2714286,0 30,6.72857143 30,15 C30,23.2714286 23.2714286,30 15,30 L15,30 Z M15,1.42959184 C7.51530612,1.42959184 1.42959184,7.51530612 1.42959184,15 C1.42959184,22.4846939 7.51836735,28.5704082 15,28.5704082 C22.4846939,28.5704082 28.5704082,22.4816327 28.5704082,15 C28.5704082,7.51530612 22.4846939,1.42959184 15,1.42959184 L15,1.42959184 Z" id="Shape"></path>
            <polygon id="Shape" points="10.7785714 8.50714286 21.8877551 15 10.7785714 21.1132653"></polygon>
        </g>
    </g>
</svg>

<svg width="30" height="30" viewBox="0 0 30 30" xmlns="http://www.w3.org/2000/svg"><title>Group</title><desc>Created with Sketch.</desc><g fill="#000"><path d="M15 30c-8.271 0-15-6.729-15-15s6.729-15 15-15 15 6.729 15 15-6.729 15-15 15zm0-28.57c-7.485 0-13.57 6.086-13.57 13.57 0 7.485 6.089 13.57 13.57 13.57 7.485 0 13.57-6.089 13.57-13.57 0-7.485-6.086-13.57-13.57-13.57zM10.779 8.507l11.109 6.493-11.109 6.113z"/></g></svg>
